X:1057
M:C
L:1/8
Q:1/4=120
K:G
de |ed`cB  cB`AG |   GFAF    D2 d2 |bagf  fe`fg|{e}d2d>c {c}B2
cd |e2 E2  A2(Bc)|   d2D2    G2 AB |cABc  BG`AB|   GFAF     D2D2|
    G>ABB  G>ABB |   BABc    d2 D2 |G>ABB G>ABB|   BABc     d2
ef |geeg   fd`dB |   eccA {e}d2 zB |cBAG  Fe`dc|   B2A>G    G2 |]

